X:4156
T:Dime paxarn parleru
R:Tonada
C:Tradicional
S:Msica Tradicional Asturiana, (C) Tello & Tito. Asturies, 2001.
S:http://pagina.de/MusTradAst <telloytito@asturies.org>
A:Asturies
Z:Les cuarenta principales
M:4/4
L:1/4
Q:1/4=90
K:Fm
|cccc|B3 A|G2 A G/F/4=E/4|F3 F|B =A B2|c/B/4A/4 G3|
|GABc|cB G2|A G/F/4=E/4 F2|FBAG-|GAG-G/F/4=E/4|F F3|
